X:38
T:Pick the Lock
C:Anthony Davis
S:Beoga - The Incident
Z:robin.beech@mcgill.ca
M:9/8
L:1/8
K:Emaj
G3 BGF FEC | B,3 B,CD E2F | G2B BGF BGF | GBB Bed B3 |
G3 BGF FEC | B,3 B,CD EGB | Bce ecB BAG |1 FB,B G2F E3 :|2 FB,B G2F EDC |:
B,3 ECB, ECB, | C2E ECB, FGE | B,2E ECB, ECB, | F3 FGA BGE |
B,2E ECB, ECB, | C2E ECB, FGE | B,2E ECB, EFG |1 Bcc G2F E2C :|2 B2c G2F E3 |]
